icon.svg

<svg xmlns="http://www.w3.org/2000/svg" xml:space="preserve" viewBox="0 0 192 192"><path fill="#e08524" d="M75.3 73.4H18.4l45.3 34.3L48.3 163l46.1-32.3 48.2 34.6-16.9-58.3 44.9-33.6H115l-20.5-55-19.2 55z"/><path d="m96.7 18.8 18.2 8.2 16.5 44.3h-15.1L96.7 18.8zm-47 146 18.7 9.9 42.6-29.9-16.5-11.4-44.8 31.4zm79.1-56.8 17.4 9.4 18.6 60.1-19.7-11.3-16.3-58.2z"/><path d="m173.1 74.3 17.8 9.2-44.7 34-17.4-9.4 44.3-33.8z"/></svg>

<svg width="192" height="192" viewBox="0 0 192 192" fill="none" xmlns="http://www.w3.org/2000/svg">
  <path d="M75.3 73.4H18.4L63.7 107.7L48.3 163L94.4 130.7L142.6 165.3L125.7 107L170.6 73.4H115L94.5 18.4L75.3 73.4Z" fill="#86F393"/>
  <path d="M96.7 18.8L114.9 27L131.4 71.3H116.3L96.7 18.8ZM49.7 164.8L68.4 174.7L111 144.8L94.5 133.4L49.7 164.8ZM128.8 108L146.2 117.4L164.8 177.5L145.1 166.2L128.8 108Z" fill="black"/>
  <path d="M173.1 74.3L190.9 83.5L146.2 117.5L128.8 108.1L173.1 74.3Z" fill="black"/>
</svg>
